X: 4112
T: PIGEON ON THE GALE
N: Not to be confused with "Pigeon on the Gate".
N: The "GALE" in the title either a strong wind or 'sweet-gale', a type of bog-plant.
R: Reel.
%R: reel
B: James Kerr "Merry Melodies" v.4 p.14 #112
Z: 2016 John Chambers <jc:trillian.mit.edu>
M: C|
L: 1/8
K: G
uD |:\
G2G2 GcBA | GABA GEED |\
(DG)GG (GA)Bd | egdB BAAB ::\
(dg)de dgd2 |
(gd)BB ABd2 |\
[1 (gd)ed (ef)ge | (dB)B2 (AB)d2 :|\
[2 c2cA B2Bd | (eg)dB (dg)d |]

%%sep 1 1 500
%%sep 1 1 500

